X: 42987
T: Willie Smith's
R: reel
M: 4/4
K: Amajor
f3a gfed|cA (3AAA FAEF|A3B cABc|fcBc efag|
f3a gfed|cA (3AAA FAEF|A3c BAFE|FABc A4:|
f3a gfef|c3f ecBc|A3c BAFE|FABc B3e|
fcfa gfef|c3f ecBc|A3c BAFE|FABc A4:|

